assets/img/braze_icons/cube-02.svg

<svg fill="none" height="24" viewBox="0 0 24 24" width="24" xmlns="http://www.w3.org/2000/svg"><g fill="#801ed7"><path d="m11 2.26195c0-.38137-.4098-.62234-.743-.43693l-6.57098 3.65576c-.34267.19064-.34252.68357.00026.874l6.57092 3.65062c.3333.1851.7428-.05588.7428-.43712z"/><path d="m2.74319 8.11876c-.33334-.18519-.74297.05594-.74282.43727l.00269 7.12187c.00015.3812.40963.622.74282.4369l6.40832-3.5602c.3429-.1905.3429-.6836 0-.8741z"/><path d="m3.89259 17.7657c-.3429.1905-.3429.6836 0 .8741l6.36461 3.5359c.3333.1852.7428-.0558.7428-.437v-7.0719c0-.3812-.4095-.6222-.7428-.437z"/><path d="m13 21.7387c0 .3812.4096.6222.7429.437l6.3646-3.5359c.3429-.1905.3429-.6836 0-.8741l-6.3646-3.5359c-.3333-.1852-.7429.0558-.7429.437z"/><path d="m21.2542 16.1148c.3332.1851.7427-.0557.7428-.4369l.0027-7.12187c.0002-.38133-.4095-.62246-.7428-.43727l-6.411 3.56174c-.3429.1905-.3429.6836 0 .8741z"/><path d="m20.3138 6.35478c.3428-.19043.3429-.68336.0003-.87401l-6.571-3.65575c-.3332-.18542-.7431.05555-.7431.43693v7.30633c0 .38124.4096.62222.7429.43712z"/></g></svg>

<svg width="24" height="24" viewBox="0 0 24 24" fill="none" xmlns="http://www.w3.org/2000/svg">
<path d="M11 2.26195C11 1.88058 10.5902 1.63961 10.257 1.82502L3.68602 5.48078C3.34335 5.67142 3.3435 6.16435 3.68628 6.35478L10.2572 10.0054C10.5905 10.1905 11 9.94952 11 9.56828V2.26195Z" fill="#801ED7"/>
<path d="M2.74319 8.11876C2.40985 7.93357 2.00022 8.1747 2.00037 8.55603L2.00306 15.6779C2.00321 16.0591 2.41269 16.2999 2.74588 16.1148L9.1542 12.5546C9.4971 12.3641 9.4971 11.871 9.1542 11.6805L2.74319 8.11876Z" fill="#801ED7"/>
<path d="M3.89259 17.7657C3.54969 17.9562 3.54969 18.4493 3.89259 18.6398L10.2572 22.1757C10.5905 22.3609 11 22.1199 11 21.7387V14.6668C11 14.2856 10.5905 14.0446 10.2572 14.2298L3.89259 17.7657Z" fill="#801ED7"/>
<path d="M13 21.7387C13 22.1199 13.4096 22.3609 13.7429 22.1757L20.1075 18.6398C20.4504 18.4493 20.4504 17.9562 20.1075 17.7657L13.7429 14.2298C13.4096 14.0446 13 14.2856 13 14.6668V21.7387Z" fill="#801ED7"/>
<path d="M21.2542 16.1148C21.5874 16.2999 21.9969 16.0591 21.997 15.6779L21.9997 8.55603C21.9999 8.1747 21.5902 7.93357 21.2569 8.11876L14.8459 11.6805C14.503 11.871 14.503 12.3641 14.8459 12.5546L21.2542 16.1148Z" fill="#801ED7"/>
<path d="M20.3138 6.35478C20.6566 6.16435 20.6567 5.67142 20.3141 5.48077L13.7431 1.82502C13.4099 1.6396 13 1.88057 13 2.26195V9.56828C13 9.94952 13.4096 10.1905 13.7429 10.0054L20.3138 6.35478Z" fill="#801ED7"/>
</svg>
